svg/fluentui-system-icons/ic_fluent_table_edit_16_regular.svg

<svg width="16" height="16" viewBox="0 0 16 16" fill="none" xmlns="http://www.w3.org/2000/svg">
<path d="M2 4.5C2 3.11929 3.11929 2 4.5 2H11.5C12.8807 2 14 3.11929 14 4.5V5.13361C13.0113 4.82111 11.8869 5.05679 11.103 5.84065L10 6.94364V6L6 6V10H6.94364L6.27356 10.6701C5.86381 11.0798 5.57315 11.5932 5.43261 12.1554L5.05813 13.6533C5.02893 13.7701 5.01113 13.8859 5.00383 14H4.5C3.11929 14 2 12.8807 2 11.5V4.5ZM5 11H3V11.5C3 12.3284 3.67157 13 4.5 13H5V11ZM5 6H3V10H5V6ZM6 5L10 5V3H6V5ZM5 3H4.5C3.67157 3 3 3.67157 3 4.5V5H5V3ZM13 5V4.5C13 3.67157 12.3284 3 11.5 3H11V5H13ZM6.97975 11.3772L11.8092 6.54776C12.5395 5.81741 13.7237 5.81741 14.454 6.54776C15.1843 7.27811 15.1843 8.46223 14.454 9.19258L9.62457 14.022C9.343 14.3036 8.99019 14.5033 8.60387 14.5999L7.10597 14.9744C6.45456 15.1372 5.86451 14.5472 6.02737 13.8958L6.40184 12.3979C6.49842 12.0116 6.69818 11.6588 6.97975 11.3772Z" fill="#212121"/>
</svg>

<svg xmlns="http://www.w3.org/2000/svg" width="16" height="16"><path d="M2 4.5A2.5 2.5 0 0 1 4.5 2h7A2.5 2.5 0 0 1 14 4.5v.634a2.87 2.87 0 0 0-2.897.707L10 6.944V6H6v4h.944l-.67.67a3.2 3.2 0 0 0-.841 1.485l-.375 1.498a1.85 1.85 0 0 0-.054.347H4.5A2.5 2.5 0 0 1 2 11.5v-7ZM5 11H3v.5A1.5 1.5 0 0 0 4.5 13H5v-2Zm0-5H3v4h2V6Zm1-1h4V3H6v2ZM5 3h-.5A1.5 1.5 0 0 0 3 4.5V5h2V3Zm8 2v-.5A1.5 1.5 0 0 0 11.5 3H11v2h2Zm-6.02 6.377 4.83-4.83a1.87 1.87 0 1 1 2.644 2.646l-4.83 4.829a2.197 2.197 0 0 1-1.02.578l-1.498.374a.89.89 0 0 1-1.079-1.078l.375-1.498a2.18 2.18 0 0 1 .578-1.02Z"/></svg>
